X: 4845
T: Brad's Honeybees
R: reel
M: 4/4
K: Dmajor
|:AG|FABA ~f3e|dAAB AGFA|BddB cdec|dAAG FGAc|
dAde ~f3e|d2AB AGFA|B2Bd cdec|1 dfec dA:|2 dfec d3||
|:A|BG~G2 Bcde|cA~A2 cdec|dAde ~f3e|dAAB AGFA|
BGGA BABd|cded cAfe|dA~A2 GBef|dfec d3:|

